ui/StatusQ/src/assets/img/icons/contract_deploy.svg

<svg fill="none" height="24" viewBox="0 0 24 24" width="24" xmlns="http://www.w3.org/2000/svg"><g stroke="#000" stroke-width="1.5"><path d="m9.00704 4.07812v4.27373c0 .72625-.58874 1.31499-1.31499 1.31499h-3.94498"/><path d="m16.9913 16.6009-3.2296-1.9964 3.2296-5.58971 3.2296 5.58971z"/><path d="m16.9913 20.4378-3.3722-5.5865 3.3722-5.83651 3.3722 5.83651z"/></g><path clip-rule="evenodd" d="m10.3807 3c-.94664-.00013-1.85828.35776-2.55201 1.00184l-3.63018 3.37039c-.76425.70955-1.19851 1.70531-1.19851 2.74817v7.7254c0 2.071 1.67893 3.75 3.75 3.75h7.1499c.0691 0 .1378-.0019.206-.0056.3377-.0183.4967-.3936.3219-.6831l-.4703-.7791c-.0121-.0202-.0341-.0322-.0576-.0322h-7.1499c-1.24264 0-2.25-1.0074-2.25-2.25v-7.7254c0-.62572.26056-1.22318.71911-1.64891l3.63018-3.37039c.41623-.38644.96322-.60118 1.53121-.6011l3.5197.00047c1.2426.00017 2.2497 1.00748 2.2497 2.25 0 .18728.1874.31831.3717.28519.2546-.04575.516-.04767.7712-.00577.1785.02931.3571-.09851.3571-.27942 0-2.07087-1.6786-3.74972-3.7495-3.75z" fill="#000" fill-rule="evenodd"/></svg>

<svg width="24" height="24" viewBox="0 0 24 24" fill="none" xmlns="http://www.w3.org/2000/svg">
<path d="M9.00704 4.07812V8.35185C9.00704 9.0781 8.4183 9.66684 7.69205 9.66684H3.74707" stroke="black" stroke-width="1.5"/>
<path d="M16.9913 16.6009L13.7617 14.6045L16.9913 9.01479L20.2209 14.6045L16.9913 16.6009Z" stroke="black" stroke-width="1.5"/>
<path d="M16.9913 20.4378L13.6191 14.8513L16.9913 9.01479L20.3635 14.8513L16.9913 20.4378Z" stroke="black" stroke-width="1.5"/>
<path fill-rule="evenodd" clip-rule="evenodd" d="M10.3807 3C9.43406 2.99987 8.52242 3.35776 7.82869 4.00184L4.19851 7.37223C3.43426 8.08178 3 9.07754 3 10.1204V17.8458C3 19.9168 4.67893 21.5958 6.75 21.5958H13.8999C13.969 21.5958 14.0377 21.5939 14.1059 21.5902C14.4436 21.5719 14.6026 21.1966 14.4278 20.9071L13.9575 20.128C13.9454 20.1078 13.9234 20.0958 13.8999 20.0958H6.75C5.50736 20.0958 4.5 19.0884 4.5 17.8458V10.1204C4.5 9.49468 4.76056 8.89722 5.21911 8.47149L8.84929 5.1011C9.26552 4.71466 9.81251 4.49992 10.3805 4.5L13.9002 4.50047C15.1428 4.50064 16.1499 5.50795 16.1499 6.75047C16.1499 6.93775 16.3373 7.06878 16.5216 7.03566C16.7762 6.98991 17.0376 6.98799 17.2928 7.02989C17.4713 7.0592 17.6499 6.93138 17.6499 6.75047C17.6499 4.6796 15.9713 3.00075 13.9004 3.00047L10.3807 3Z" fill="black"/>
</svg>
